assets/icon/look.svg

<svg viewBox="0 0 49.4 35.6" xmlns="http://www.w3.org/2000/svg"><path d="m25 7.2-24.7 17.8 24.7 17.8 24.7-17.8zm-.5 30-16.4-12.2 16.4-12.2-7.3 12.2zm1-24.4 16.4 12.2-16.4 12.2 7.3-12.2z" transform="translate(-.3 -7.2)"/></svg>

<svg id="Layer_1" data-name="Layer 1" xmlns="http://www.w3.org/2000/svg" viewBox="0 0 49.4 35.6"><g id="Layer_2-2" data-name="Layer 2-2"><g id="perceive"><path d="M25,7.2.3,25,25,42.8,49.7,25Zm-.5,30L8.1,25,24.5,12.8,17.2,25Zm1-24.4L41.9,25,25.5,37.2,32.8,25Z" transform="translate(-0.3 -7.2)"/></g></g></svg>
